X: 31329
T: Paddy McGinty's
R: barndance
M: 4/4
K: Gmajor
|:g2 f2 [Ge]>dB>d|e2 E2 E2 A>G|FA D2 D2 B>A|[DG]>F[DG]>B [F3d3] f|
g2 f2 [Ge]>dB>d|e2 E2 E2 A>G|F4- FDE>F|[B,4G4]- [B,4G4]:|
|:[D2B2] B>A G2 G>A|B>AB>c d3 B|[E2c2] c>B [E2A2] A>B|c>Bc>d [c3e3] c|
[^D2B2] B>A G2 G>A|B>AB>c [D2d2] F2|[G2g2] [G2B2] [^C2A2] [=C2F2]|[B,4G4]- [B,4G4]:|

